findly-builder/apps/searchassist/src/assets/icons/content/carrotright.svg

<svg width="6" height="10" viewBox="0 0 6 10" fill="none" xmlns="http://www.w3.org/2000/svg">
<path fill-rule="evenodd" clip-rule="evenodd" d="M5.81913 4.51416C5.99126 4.6863 6.00139 4.9591 5.8495 5.14308L5.81913 5.17649L1.71802 9.27759C1.53512 9.46049 1.23859 9.46049 1.05569 9.27759C0.883549 9.10546 0.873423 8.83265 1.02531 8.64867L1.05569 8.61526L4.82555 4.84532L1.05569 1.07538C0.883549 0.903245 0.873423 0.630444 1.02531 0.446462L1.05569 0.413052C1.22783 0.240913 1.50063 0.230787 1.68461 0.382675L1.71802 0.413052L5.81913 4.51416Z" fill="#0D6EFD"/>
</svg>

<svg width="6" height="10" fill="none" xmlns="http://www.w3.org/2000/svg"><path fill-rule="evenodd" clip-rule="evenodd" d="M5.82 4.514a.468.468 0 0 1 .03.63l-.03.032-4.102 4.102a.468.468 0 0 1-.693-.63l.03-.033 3.77-3.77-3.77-3.77a.468.468 0 0 1-.03-.629l.03-.033a.468.468 0 0 1 .63-.03l.033.03 4.101 4.101Z" fill="#0D6EFD"/></svg>
